!!!!SEGMENT: pl-kj--bj-muz-1603-iii-1--002_zelenski-wladyslaw--sechs-charakterstucke-op-17-no-2-promenade.krn
!!!cenid: 18xx:3681
!!!COM: Żeleński, Władysław
!!!COM-rismid: pe41024455
!!!CDT:
!!!CNT:
!!!GTL: Sechs Charakterstücke op. 17
!!!OTL: No. 2 Promenade
!!!PDT: 1872
!!!AGN:
!!!SMS-siglum: PL-Kj
!!!SMS-shelfmark: BJ Muz. 1603 III 1
!!!SMS-shelfwork: 002 G
!!!SMS-variant:
!!!SMS-altvar:
!!!NIFC-rismid:
!!!URL-scan: https://polona.pl/item/sechs-charakterstucke-fur-pianoforte-op-17-h-1,MTIzNzQyODQ1/0/#info:metadata
!!!ONB-nifc:
!!!OMD: Andante ma non troppo lento.
**kern	**kern	**dynam	**fing
*part1	*part1	*part1	*part1
*staff2	*staff1	*	*
*Ipiano	*Ipiano	*	*
*ICklav	*ICklav	*	*
*clefF4	*clefG2	*	*
*k[b-e-]	*k[b-e-]	*	*
*B-:	*B-:	*	*
*M4/4	*M4/4	*	*
*met(c)	*met(c)	*	*
=1	=1	=1	=1
!	!	!LO:DY:b=2	!
(8BB-\L	1r	pp	.
8en\	.	.	.
8f\	.	.	.
8A\J	.	.	.
8B-\L	.	.	.
8f#X\	.	.	.
8g\	.	.	.
8Bn\J	.	.	.
=2	=2	=2	=2
8c\L	1r	.	.
8d\	.	.	.
8e-\	.	.	.
8E-\J	.	.	.
8F\L	.	.	.
8Bn\	.	.	.
8c\	.	.	.
8FF\J)	.	.	.
=3	=3	=3	=3
(8BB-\L	4r	.	.
8en\	.	.	.
!	!LO:TX:b:i:t=dolce	!	!
!	!LO:TX:i:a:t=ten.	!	!
8f\	2dd^\	.	.
8A\J	.	.	.
8B-\L	.	.	.
8f#X\	.	.	.
8g\	[4dd\	<	.
8Bn\J	.	.	.
=4	=4	=4	=4
*	*^	*	*
*	*Xtuplet	*	*	*
8c\L	(12dd\L]	2.ryy	.	.
.	12ee-\	.	.	.
8d\	.	.	.	.
.	12ff\J	.	.	.
8e-\	12gg\L	.	.	.
.	12bn\	.	.	.
8E-\J	.	.	.	.
.	12cc\J	.	[	.
8F\L	12dd\L	.	>	.
.	12ee-\	.	.	.
8Bn\	.	.	.	.
.	12g\J	.	.	.
8c\	12a/L	4e-\	.	.
.	12b-X/	.	.	.
8FF\J)	.	.	.	.
.	12cc/J	.	]	.
!LO:LB:g=original	!LO:LB:g=original	!LO:LB:g=original	!	!
=5	=5	=5	=5	=5
8BB-\L	4f/)	4d\	.	.
8en\	.	.	.	.
8f\	2dd^\	2.ryy	.	.
8A\J	.	.	.	.
8B-\L	.	.	.	.
8e\	.	.	.	.
8f\	[4dd\	.	<	.
8A-X\J	.	.	.	.
=6	=6	=6	=6	=6
8G\L	(12dd\L]	2.ryy	.	.
.	12ee-\	.	.	.
8d\	.	.	.	.
.	12ff\J	.	.	.
8e-\	12gg\L	.	.	.
.	12bn\	.	.	.
8G-X\J	.	.	.	.
.	12cc\J	.	[	.
8F\L	12dd\L	.	>	.
.	12ee-\	.	.	.
8Bn\	.	.	.	.
.	12g\J	.	.	.
8c\	12a/L	4e-\	.	.
.	12b-X/	.	.	.
8FF\J	.	.	.	.
.	12cc/J	.	]	.
*	*v	*v	*	*
=7	=7	=7	=7
8GG\L	4b- 4d/)	.	.
8B-\	.	.	.
8e-\	([4bb-^\	.	.
8d\J	.	.	.
!	!	!LO:HP:b:t=cresc.un poco	!
8c#X\L	12bb-\L]	<	.
.	12aa\	.	.
8en\	.	.	.
.	12dd#X\J	.	.
8a\	12een\L	.	.
.	12ff\	.	.
8c#\J	.	.	.
.	[12gg\J	.	.
=8	=8	=8	=8
*^	*	*	*
8d\L	2ryy	12gg\L]	.	.
.	.	12ff\	.	.
8en\	.	.	.	.
.	.	12a#X\J	.	.
8f\	.	12bn\L	.	.
.	.	12cc\	.	.
8D\J	.	.	.	.
.	.	[12dd\J	.	.
8E-X/L	(4E-X\	12dd\L]	.	.
.	.	12cc\	.	.
8c/	.	.	.	.
.	.	12f#X\J	.	.
8d-X/	4En\)	12g/L	.	.
.	.	12an/	.	.
8c/J	.	.	.	.
.	.	12b/J	.	.
!LO:LB:g=original	!LO:LB:g=original	!LO:LB:g=original	!	!
=9	=9	=9	=9	=9
8F/L	(4F\	4a/)	.	.
8A/	.	.	.	.
8e-/	4F#X\)	([4ccc^\	.	.
8d/J	.	.	.	.
8G\L	2ryy	12ccc\L]	.	.
.	.	12bb-\	.	.
8a\	.	.	.	.
.	.	12cc#X\J	.	.
8b-\	.	12dd\L	.	.
.	.	12een\	.	.
8G\J	.	.	.	.
.	.	12ff\J)	.	.
*v	*v	*	*	*
=10	=10	=10	=10
*	*^	*	*
8C\L	([4aa/	4r	.	.
!	!	!	!LO:HP:b:t=dimin.	!
8d#X\	.	.	>	.
8en\	12aa/L]	(4b-\	>	.
.	12gg/	.	.	.
8C\J	.	.	.	.
.	12ff/J	.	.	.
*ped	*	*	*	*
8FF\L	4ff/)	4a\)	]	.
8C\	.	.	.	.
8F\	4r	(4e-X^>\	pp	.
*Xped	*	*	*	*
8c\J	.	.	.	.
=11	=11	=11	=11	=11
*^	*	*	*	*
*ped	*	*	*	*	*
*Xtuplet	*	*	*	*	*
12BB-\L	2ryy	4r	4d\)	.	.
12F\	.	.	.	.	.
12d\J	.	.	.	p	.
!	!	!LO:TX:i:a:t=ten.	!	!	!
!	!	!LO:TX:i:b:t=espress.	!	!	!
12en\L	.	2dd^\	2.ryy	.	.
12g\	.	.	.	.	.
*Xped	*	*	*	*	*
12f\J	.	.	.	.	.
!LO:N:vis=3	!	!	!	!	!
12Bn/L	2Bn\	.	.	.	.
12d/	.	.	.	.	.
12f/J	.	.	.	.	.
12f#X/L	.	([4dd\	.	.	.
12a-X/	.	.	.	.	.
12g/J	.	.	.	.	.
=12	=12	=12	=12	=12	=12
!LO:N:vis=2	!	!	!	!	!
4c/	2c\	12dd\L]	2.ryy	<	.
.	.	12ee-\	.	.	.
.	.	12ff\J	.	.	.
4g 4e-/	.	12gg\L	.	.	.
.	.	12bn\	.	.	.
.	.	12cc\J	.	.	.
4FF/	2ryy	12dd\L	.	.	.
.	.	12ee-\	.	.	.
.	.	12g\J	.	[	.
4c 4F\	.	12a/L	4e-\	>	.
.	.	12b-X/	.	.	.
.	.	12cc/J	.	]]	.
*	*	*v	*v	*	*
!LO:LB:g=original	!LO:LB:g=original	!LO:LB:g=original	!	!
=13	=13	=13	=13	=13
*ped	*	*	*	*
12BB-\L	2ryy	4f 4d/)	.	.
12F\	.	.	.	.
12d\J	.	.	.	.
12en\L	.	2dd^\	.	.
12g\	.	.	.	.
*Xped	*	*	*	*
12f\J	.	.	.	.
!LO:N:vis=3	!	!	!	!
12A-X/L	2A-\	.	.	.
12d/	.	.	.	.
12e-X/J	.	.	.	.
12en/L	.	[4dd\	.	.
12g/	.	.	.	.
12f/J	.	.	.	.
=14	=14	=14	=14	=14
*	*	*^	*	*
!LO:N:vis=2	!	!	!	!	!
4G/	2G\	(12dd\L]	2.ryy	<	.
.	.	12ee-\	.	.	.
.	.	12ff\J	.	.	.
4e-X 4B-/	.	12gg\L	.	.	.
.	.	12bn\	.	.	.
.	.	12cc\J	.	.	.
4FF/	2ryy	12dd\L	.	.	.
.	.	12ee-\	.	.	.
.	.	12g\J	.	[	.
4c 4F\	.	12a/L	4e-\	>	.
.	.	12b-X/	.	.	.
.	.	12cc/J	.	]]	.
*	*	*v	*v	*	*
=15	=15	=15	=15	=15
*ped	*	*	*	*
12GG/L	2ryy	4b- 4d/)	.	.
12D/	.	.	.	.
12G/J	.	.	.	.
12B-\L	.	([4bb-^\	.	.
12e-\	.	.	.	.
*Xped	*	*	*	*
12d\J	.	.	.	.
*clefG2	*	*	*	*
!LO:N:vis=2	!	!	!LO:HP:b:t=cresc.	!
4c#X/	2c#\	12bb-\L]	<	.
.	.	12aa\	.	.
.	.	12dd#X\J	.	.
[4a 4en/	.	12een\L	.	.
.	.	12ff\	.	.
.	.	[12gg\J	.	.
=16	=16	=16	=16	=16
4a/]	2d\	12gg\L]	.	.
.	.	12ff\	.	.
.	.	12a#X\J	.	.
4f/	.	12bn\L	.	.
.	.	12cc\	.	.
.	.	[12dd\J	.	.
*clefF4	*	*	*	*
4EEn/	2ryy	12dd\L]	.	.
.	.	12cc\	.	.
.	.	12f#X\J	.	.
4c 4B- 4En\	.	12g/L	.	.
.	.	12an/	.	.
.	.	12b-X/J)	.	.
!LO:LB:g=original	!LO:LB:g=original	!LO:LB:g=original	!	!
=17	=17	=17	=17	=17
*ped	*	*	*	*
12FF/L	4ryy	4a/	.	.
12C/	.	.	.	.
*Xped	*	*	*	*
12F/J	.	.	.	.
*ped	*	*	*	*
12A/L	(4F#X\	([4ccc\	.	.
12e-X/	.	.	.	.
*Xped	*	*	*	*
12d/J	.	.	.	.
(4B-/	2G\)	12ccc\L]	.	.
.	.	12bb-\	.	.
.	.	12cc#X\J	.	.
4b-/)	.	12dd\L	.	.
.	.	12een\	.	.
.	.	12ff\J	.	.
*v	*v	*	*	*
=18	=18	=18	=18
*	*^	*	*
!	!	!	!LO:HP:b:t=dimin.	!
4CC/	4aa^>/	4r	>	.
.	.	.	>	.
4en 4c\	12aa/L	(4b-\	.	.
.	12gg/	.	.	.
.	12ff/J	.	.	.
*ped	*	*	*	*
12FF/L	4ff/)	4a\)	.	.
12C/	.	.	.	.
12F/J	.	.	]	.
12A\L	4r	4ryy	.	.
12c\	.	.	.	.
*Xped	*	*	*	*
12d\J	.	.	.	.
=19	=19	=19	=19	=19
*^	*	*	*	*
!LO:N:vis=2	!	!	!	!	!
4e-/	2e-\	8r	4ryy	p	.
!	!	!LO:TX:b:i:t=dolce	!	!	!
.	.	8bn/L	.	<	.
4f/	.	8cc/	4cc\	.	.
.	.	8ccc/J	.	[[	.
!LO:N:vis=2	!	!	!LO:TX:t=P:problem=błędne wyświetlanie łuku	!	!
4d/	[2d\	2ff/	(>12cc\L	.	.
.	.	.	12dd\	.	.
.	.	.	12cc\J	.	.
4f/	.	.	12b-X\L	.	.
.	.	.	12a\	.	.
.	.	.	12a-X\J	.	.
*v	*v	*	*	*	*
=20	=20	=20	=20	=20
!	!	!	!LO:HP:a	!
(12d\L]	4b-/	2.g\)	<	.
12e-\	.	.	.	.
12d\J	.	.	.	.
12c\L	4ee-/	.	.	.
12e-\	.	.	.	.
12c\J	.	.	.	.
12A\L	4cc/	.	.	.
12e-\	.	.	[	.
12A\J	.	.	.	.
!	!	!	!LO:HP:a	!
12D\L	8b-/L	4f#X\	>	.
12d\	.	.	.	.
.	8a/J	.	]]	.
12C\J)	.	.	.	.
!LO:PB:g=original	!LO:PB:g=original	!LO:PB:g=original	!	!
=21	=21	=21	=21	=21
4BB-/	8r	4ryy	<	.
.	8f#X/L	.	.	.
4d-X 4B-\	8g/	[4g\	.	.
.	8gg/J	.	[[	.
4AA/	2cc/	12g\L]	.	.
.	.	12a\	.	.
.	.	12g\J	.	.
4c 4A\	.	12fn\L	.	.
.	.	12en\	.	.
.	.	12e-X\J	.	.
=22	=22	=22	=22	=22
(12A-X\L	(4f/	4d\	.	.
!	!	!	!LO:HP:b:t=cresc. poco a poco	!
12B-\	.	.	<	.
12A-\J	.	.	.	.
12G\L	4b-/	2e-\	.	.
12B-\	.	.	.	.
12G\J	.	.	.	.
12F\L	4a-X/	.	.	.
12c\	.	.	.	.
12F\J	.	.	.	.
12BB-\L	8g/L	4d\	.	.
12B-\	.	.	.	.
.	8f/J)	.	.	.
12AA-X\J)	.	.	.	.
=23	=23	=23	=23	=23
*	*	*	*	*below
4GG-X^/	8r	2ryy	.	.
.	(8Bn\L	.	<	1
4B- 4G-X\	8c\)	.	.	2
.	(8d\J	.	.	1
!	!LO:TX:i:a:t=piu legg.	!	!	!
!	!	!LO:TX:t=P:problem=brak wyświetlania palcowania	!	!
4FF/	12r	2e-\)	[[	2-1
.	12an/L	.	.	.
.	12b-/J	.	.	.
4An 4F\	12dd/L	.	.	.
.	12bn/	.	.	.
.	12cc/J	.	.	.
=24	=24	=24	=24	=24
4FF-X^/	8r	2ryy	.	.
.	(8A\L	.	<	1
4A-X 4F-X\	8B-X\)	.	.	.
.	(<8c\J	.	.	1
!	!	!LO:TX:t=P:problem=brak wyświetlania palcowania	!	!
4EE-/	12r	2d-X^\)	[[	2-1
.	(<12gn/L	.	.	.
.	12a-X/J	.	.	.
4Gn 4E-\	12cc/L	.	.	.
.	12an/	.	.	.
.	12b-/J)	.	.	.
!LO:LB:g=original	!LO:LB:g=original	!LO:LB:g=original	!	!
=25	=25	=25	=25	=25
4EE--^/	8r	2ryy	.	.
.	(8G\L	.	<	.
4G-X 4E--\	8A-X\)	.	.	.
.	(<8B-\J	.	.	.
4DD-X/	12r	2Bn^>\)	[[	.
.	(<12en/L	.	.	.
.	12f/J	.	.	.
4F 4D-X\	12a-X/L	.	.	.
.	12e/	.	.	.
.	12f/J)	.	.	.
=26	=26	=26	=26	=26
*^	*	*	*	*
*ped	*	*	*	*	*
!	!	!	!	!LO:DY:b:t=p poco a poco più stringendo	!
12CL 12CC/	12ryy	[4cc [4a-X/	4c\	p	.
12F/	[6F\	.	.	.	.
[<12A-X/J	.	.	.	.	.
*Xped	*	*	*	*	*
!	!	!LO:TX:i:b:t=	!	!	!
4c/	4A-] 4F\]	12cc]L 12a-] 12c/	4ryy	.	.
.	.	(12b- 12g/	.	.	.
.	.	12a-J 12f/)	.	.	.
*ped	*	*	*	*	*
12CL 12CC/	12ryy	(4.ff (4.f^/	2dd-X 2b-\	.	.
12G/	[6G\	.	.	.	.
[<12B-/J	.	.	.	.	.
4d-X/	4B-] 4G\]	.	.	.	.
*Xped	*	*	*	*	*
.	.	8een 8en/))	.	.	.
=27	=27	=27	=27	=27	=27
*ped	*	*	*	*	*
12CL 12CC/	12ryy	[4cc [4a-X/ 4c/	4ryy	.	.
12F/	[6F\	.	.	.	.
[<12A-X/J	.	.	.	.	.
*Xped	*	*	*	*	*
4c/	4A-] 4F\]	12cc]L 12a-] 12c/	4ryy	.	.
.	.	(12b- 12g/	.	.	.
.	.	12a-J 12f/)	.	.	.
*ped	*	*	*	*	*
12CL 12CC/	12ryy	(4.ff 4.f/	2dd-X 2b-\	.	.
12G/	[6G\	.	.	.	.
[<12B-/J	.	.	.	.	.
*Xped	*	*	*	*	*
4d-X/	4B-] 4G\]	.	.	.	.
.	.	8een 8en/)	.	.	.
!LO:LB:g=original	!LO:LB:g=original	!LO:LB:g=original	!LO:LB:g=original	!	!
=28	=28	=28	=28	=28	=28
*ped	*	*	*	*	*
12FL 12FF/	12ryy	[4ff [4dd-X/	4f\	.	.
12B-/	[6B-\	.	.	.	.
[<12d-X/J	.	.	.	.	.
*Xped	*	*	*	*	*
4f/	4d-] 4B-\]	12ff]L 12dd-/]	4ryy	.	.
.	.	(12ee-X 12cc/	.	.	.
.	.	12dd-J 12b-/)	.	.	.
*ped	*	*	*	*	*
12FL 12FF/	12ryy	(4.bb- (4.b-^/	2gg-X 2ee-\	.	.
12c/	[6c\	.	.	.	.
[<12e-X/J	.	.	.	.	.
*Xped	*	*	*	*	*
4g-X/	4e-] 4c\]	.	.	.	.
.	.	8aan 8an/))	.	.	.
=29	=29	=29	=29	=29	=29
*ped	*	*	*	*	*
12FL 12FF/	12ryy	[4ff [4dd-X/	4f\	.	.
12B-/	[6B-\	.	.	.	.
[12d-X/J	.	.	.	.	.
*Xped	*	*	*	*	*
4f/	4d-] 4B-\]	12ff]L 12dd-/]	4ryy	.	.
.	.	(12ee- 12cc/	.	.	.
.	.	12dd-J 12b-/)	.	.	.
*ped	*	*	*	*	*
12FL 12FF/	12ryy	(4.bb- 4.b-/	2gg-X 2ee-\	.	.
12c/	[6c\	.	.	.	.
[12e-/J	.	.	.	.	.
*Xped	*	*	*	*	*
4g-X/	4e-] 4c\]	.	.	.	.
.	.	8aa 8a/)	.	.	.
=30	=30	=30	=30	=30	=30
*	*^	*	*	*	*
*ped	*	*	*	*	*	*
12D-XL 12DD-X\	12ryy	12ryy	[4ddd-X [4bb- [4gg-X [4dd-X\	2ryy	ff	.
!	!LO:TX:B:a:t=a tempo	!	!	!	!	!
12d-X\	12ryy	[<6d-/	.	.	.	.
(12g-X\J	[12g-/	.	.	.	.	.
*Xped	*	*	*	*	*	*
4b-/)	4g-] 4d-\]	2.ryy	12ddd-]L 12bb-] 12gg-] 12dd-\]	.	.	.
.	.	.	(12ccc 12cc\	.	.	.
.	.	.	12ddd-J 12dd-\)	.	.	.
*ped	*	*	*	*	*	*
12C-XL 12CC-X/	12ryy	.	(4.eee- 4.ee-\	2aa 2ff/	.	.
12d-X	[6d-X\	.	.	.	.	.
(12f/J	.	.	.	.	.	.
4a/)	4f 4d-\]	.	.	.	.	.
*Xped	*	*	*	*	*	*
.	.	.	8ddd- 8dd-\)	.	.	.
*	*v	*v	*	*	*	*
!LO:LB:g=original	!LO:LB:g=original	!LO:LB:g=original	!LO:LB:g=original	!	!
=31	=31	=31	=31	=31	=31
*ped	*	*	*	*	*
12BB-L 12BBB-/	12ryy	[4ddd-X [4bb- [4gg-X [4dd-X\	2ryy	.	.
12d-X/	[6d-\	.	.	.	.
[<12g-X/J	.	.	.	.	.
*Xped	*	*	*	*	*
4b-/	4g-] 4d-\]	12ddd-]L 12bb-] 12gg-] 12dd-\]	.	.	.
.	.	12ccc 12cc\	.	.	.
.	.	12ddd-J 12dd-\	.	.	.
*ped	*	*	*	*	*
12DnL 12DDn/	12ryy	(4.ccc (4.cc\	2aa 2ff/	.	.
12dn/	[6dn\	.	.	.	.
[<12f/J	.	.	.	.	.
*Xped	*	*	*	*	*
4a/	4f] 4d\]	.	.	.	.
.	.	8bbn 8bn\))	.	.	.
=32	=32	=32	=32	=32	=32
*ped	*	*	*	*	*
12E-L 12EE-/	12ryy	[4dddn [4bbn [>4gg [4ddn\	2ryy	.	.
(12d/	6d\	.	.	.	.
12f/J	.	.	.	.	.
*Xped	*	*	*	*	*
4g/)	4e-\	12ddd]L 12bb] 12gg] 12dd\]	.	.	.
.	.	(12bbn 12bn\	.	.	.
.	.	12cccJ 12cc\)	.	.	.
*ped	*	*	*	*	*
12CL 12CC/	12ryy	[4bb-X [4gg-X [4ee- [4b-X\	2ryy	.	.
(12c/	[6c\	.	.	.	.
12e-/J	.	.	.	.	.
*Xped	*	*	*	*	*
4g-X/)	4e- 4c\]	12bb-L] 12gg-] 12ee-] 12b-\]	.	.	.
.	.	(12gg#X 12g#X\	.	.	.
.	.	12aaJ 12a\)	.	.	.
*	*	*v	*v	*	*
=33	=33	=33	=33	=33
*ped	*	*	*	*
12D-XL 12DD-X\	12ryy	[4ccc [4aa [4ff [4cc\	.	.
!	!LO:TX:i:a:t=riten. un poco	!	!	!
(12c\	6c/	.	.	.
12e-\J	.	.	.	.
*Xped	*	*	*	*
4f\) 4d-X\	4ryy	12ccc]L 12aa] 12ff] 12cc\]	.	.
.	.	(12aa 12a\	.	.
.	.	12bb-J 12b-\)	.	.
*ped	*	*	*	*
12BB-L 12BBB-/	12ryy	[4aa-X [4ff [4dd-X [4a-X\	.	.
(12An/	6An\	.	.	.
12c/J	.	.	.	.
*Xped	*	*	*	*
4d-\) 4B-\	4ryy	12aa-]L 12ff] 12dd-] 12a-\]	.	.
.	.	(12ff 12f\	.	.
.	.	12gg-XJ 12g-X\)	.	.
!LO:LB:g=original	!LO:LB:g=original	!LO:LB:g=original	!	!
=34	=34	=34	=34	=34
*tuplet	*	*	*	*
*ped	*	*	*	*
!LO:N:vis=3	!	!	!	!
!LO:TUP:problem=klamra łukowa	!	!	!	!
(<12FF/L	2FF\	8ff 8an 8f\	p	.
12F/	.	.	.	.
!	!	!LO:TX:i:b:t=a tempo	!	!
.	.	8r	.	.
12c/J	.	.	.	.
*	*	*tuplet	*	*
!LO:TUP:problem=klamra łukowa	!	!LO:TUP:a:problem=klamra łukowa	!	!
12e-/L	.	6r	.	.
12g-X/J)	.	.	.	.
12r	.	12a/	.	.
!LO:TUP:a:problem=klamra łukowa	!	!LO:TUP:a:problem=klamra łukowa	!	!
6r	2ryy	12bn\L	.	.
.	.	12cc\J	>	.
*clefG2	*	*	*	*
12f/	.	12r	.	.
!LO:TUP:a:problem=klamra łukowa	!	!LO:TUP:a:problem=klamra łukowa	!	!
12a/L	.	6r	.	.
12cc/J	.	.	.	.
12r	.	12dd\L	]]	.
*v	*v	*	*	*
=35	=35	=35	=35
!LO:TUP:a:problem=klamra łukowa	!	!	!
!	!LO:TUP:problem=brak klamry	!	!
12r	12ee-\J	pp	.
12f\L	12r	.	.
12cc\J	12r	.	.
!LO:TUP:a:problem=klamra łukowa	!LO:TUP:a:problem=klamra łukowa	!	!
12ee-\L	6r	.	.
12gg-X\J	.	.	.
12r	12aa\	.	.
!LO:TUP:a:problem=klamra łukowa	!LO:TUP:a:problem=klamra łukowa	!	!
6r	12bbn\L	.	.
.	12ccc\J	.	.
12ff\	12r	.	.
!LO:TUP:a:problem=klamra łukowa	!LO:TUP:a:problem=klamra łukowa	!	!
12aa\L	6r	.	.
12ccc\J	.	.	.
12r	(12ddd\	.	.
=36	=36	=36	=36
*	*Xtuplet	*	*
*Xped	*	*	*
1r	12eee-\L)	.	.
.	(12bbn\	.	.
.	12ccc\J	.	.
.	12ggg-X\L)	.	.
.	(12gg-X\	.	.
.	12aa\J	.	.
.	12eeen\L)	.	.
.	(12een\	.	.
.	12aa\J	.	.
.	12fff\L)	.	.
.	(12ff\	.	.
.	12aa\J	.	.
*clefF4	*	*	*
!LO:LB:g=original	!LO:LB:g=original	!	!
=37	=37	=37	=37
1r	12ddd\L)	>	.
.	(12dd\	.	.
.	12ff\J	.	.
.	12eee-\L)	.	.
.	(12ee-\	.	.
.	12ff\J	.	.
!	!LO:TX:i:b:t=riten. un poco	!	!
.	12bbn\L)	.	.
.	(12bn\	.	.
.	12ee-\J	.	.
.	12ccc\L)	.	.
.	(12cc\	.	.
.	12ee-\J	]]	.
=38	=38	=38	=38
*^	*	*	*
*ped	*	*	*	*
!	!	!LO:TX:B:a:t=a tempo	!	!
4r	2BB-\	12ff\L)	.	.
.	.	(12f\	.	.
!	!	!LO:TX:i:b:t=ben marcato	!	!
.	.	12dd\J	.	.
2d^/	.	12bb-\L)	.	.
.	.	(12b-\	.	.
.	.	12dd\J	.	.
*Xped	*	*	*	*
.	2BBn\	12aa\L)	.	.
.	.	(12a\	.	.
.	.	12dd\J	.	.
([4d/	.	12aa-X\L)	.	.
.	.	(12a-X\	.	.
.	.	12dd\J	.	.
=39	=39	=39	=39	=39
*Xtuplet	*	*	*	*
12d/L]	4C\	(4gg 4ee- 4g'\)	.	.
12e-/	.	.	.	.
12f/J	.	.	.	.
12g/L	4r	4eee- 4gg 4ee-'\)	.	.
12Bn/	.	.	.	.
12c/J	.	.	.	.
12d/L	4r	4r	.	.
12e-/	.	.	.	.
12G/J	.	.	.	.
*ped	*	*	*	*
!	!	!	!LO:HP:b=2	!
12A/L	4F\	[4ff 4ee- [4f/	>]	.
12B-X/	.	.	.	.
*Xped	*	*	*	*
12c/J)	.	.	.	.
=40	=40	=40	=40	=40
*ped	*	*	*	*
4F/	2BB-\	12ff]L 12dd 12f/]	.	.
.	.	(12dd/	.	.
.	.	12ff/J	.	.
2d^/	.	12fff\L)	.	.
.	.	(12ff\	.	.
.	.	12aa-X\J	.	.
*Xped	*	*	*	*
.	2BBn\	12eee-\L)	.	.
.	.	(12ff\	.	.
.	.	12aa-\J	.	.
[4d/	.	12ddd\L)	.	.
.	.	(12ff\	.	.
.	.	12aa-\J	.	.
!LO:LB:g=original	!LO:LB:g=original	!LO:LB:g=original	!	!
=41	=41	=41	=41	=41
!	!	!	!LO:HP:b=2	!
(12d/L]	4C\	4eee- 4gg 4ee-'\	<	.
12e-/	.	.	.	.
12f/J	.	.	.	.
12g/L	4r	4gg 4ee- 4g'\)	.	.
12Bn/	.	.	.	.
12c/J	.	.	.	.
12d/L	4r	4r	[[	.
12e-/	.	.	.	.
12G/J	.	.	.	.
*ped	*	*	*	*
!	!	!	!LO:HP:b=2	!
12A/L	4F\	(4ccc 4ee- 4cc'\	>	.
12B-X/	.	.	.	.
*Xped	*	*	*	*
12c/J)	.	.	]]	.
*v	*v	*	*	*
=42	=42	=42	=42
*	*^	*	*
*ped	*	*	*	*
4GG#X/	4ff 4dd'\) 4f\	4ryy	.	.
.	.	[16qqb-/LL	.	.
.	.	[16qqdd/	.	.
.	.	[16qqff/JJ	.	.
4f 4d 4B- 4G#X\	([4bb-^/	4ff] 4dd] 4b-\]	.	.
*Xped	*	*	*	*
4AA/	12bb-/L]	2ryy	p	.
.	12aa/	.	.	.
.	12dd#X/J	.	.	.
4g 4c#X 4A\	12een/L	.	.	.
.	12ff/	.	.	.
.	[>12gg/J	.	.	.
*	*v	*v	*	*
=43	=43	=43	=43
!	!	!LO:HP:b:t=cresc.	!
4D\	12gg/L]	<	.
.	12ff/	.	.
.	12a#X/J	.	.
4f 4d\	12bn/L	.	.
.	12cc/	.	.
.	[>12dd/J	.	.
4EEn/	12dd/L]	.	.
.	12cc/	.	.
.	12f#X/J	.	.
4c 4B- 4En\	12g/L	.	.
.	12an/	.	.
.	12b-X/J)	.	.
=44	=44	=44	=44
*	*^	*	*
4FF/	4f/	2.ryy	.	.
.	16qqdd/LL	.	.	.
.	16qqff/	.	.	.
.	16qqaa-X/JJ	.	.	.
4a-X: 4d: 4Bn: 4F;:\	[4fff;\	.	.	.
*Xped	*	*	*	*
!	!LO:TX:i:b:t=con gran espressione	!	!	!
4FF/	12fff\L]	.	.	.
.	12eee-\	.	.	.
.	12ff#X\J	.	.	.
4g 4e- 4c\	12gg/L	4ee-\	.	.
.	12aany/	.	.	.
.	12bb-/J	.	.	.
!LO:LB:g=original	!LO:LB:g=original	!LO:LB:g=original	!	!
=45	=45	=45	=45	=45
4FF/	[>4ddd/	4ryy	.	.
4e- 4A 4F\	12ddd:/L]	4ee-: 4a:\	.	.
.	12ccc/	.	.	.
.	12bb-/J	.	.	.
4GG/	2bb-/	[>4dd: 4b-:\	.	.
4d 4B- 4G\	.	12dd\L]	.	.
.	.	12cc\	.	.
.	.	12b-\J	.	.
=46	=46	=46	=46	=46
4EE-/	[4gg/	12b-\L	.	.
.	.	(>12bn\	.	.
.	.	12dd\J	.	.
*ped	*	*	*	*
8g: 8c: 8B-: 8E-;:\	(<12gg;/L]	8cc\)	.	.
*Xped	*	*	*	*
.	12ff#X/	.	pp	.
8r	.	8ryy	.	.
.	12aa/J	.	.	.
2r	(12ff#/L)	2ryy	.	.
.	12dd/	.	.	.
.	12ffn/J	.	.	.
.	12ee-/L)	.	<	.
.	(12Bn/	.	.	.
.	12c/J	.	[[	.
=47	=47	=47	=47	=47
*ped	*	*	*	*
!	!LO:TX:i:a:t=ten.	!	!	!
2r	2e-/)	2ryy	.	.
*Xped	*	*	*	*
2E- 2FF/	4.d/	(>2f 2A\	>	.
.	(<8c/	.	]]	.
=48	=48	=48	=48	=48
*^	*	*	*	*
!	!	!	!	!LO:DY:a	!
!LO:N:vis=2	!	!	!	!	!
4BB-/	2BB-\	8B-/L))	4ryy	p	.
.	.	8en/	.	.	.
4B- 4A-X/	.	8f/	[4f\	.	.
.	.	8ff/J	.	.	.
!LO:N:vis=2	!	!	!	!LO:HP:a	!
4BB-/	2BB-\	[2b-/	12f\L]	<	.
.	.	.	(>12g\	.	.
.	.	.	12f\J	.	.
[4B- 4G/	.	.	12e\L	.	.
.	.	.	12d\	.	.
.	.	.	12d-X\J)	[[	.
*	*	*v	*v	*	*
!LO:LB:g=original	!LO:LB:g=original	!LO:LB:g=original	!	!
=49	=49	=49	=49	=49
!	!	!	!LO:HP:a	!
12B-]L 12G/	[2BB-\	4b-] 4e- 4c/	>	.
12B-/	.	.	.	.
12G/J	.	.	.	.
12F/L	.	(>4b- 4d/	.	.
12B-/	.	.	.	.
12F/J	.	.	.	.
12En/L	2BB-\]	4cc 4g/	.	.
12B-/	.	.	.	.
12E/J	.	.	]	.
12E-X/L	.	4cc#X 4g-X/	.	.
12B-/	.	.	.	.
12E-/J	.	.	.	.
=50	=50	=50	=50	=50
*	*	*^	*	*
!LO:N:vis=2	!	!	!	!	!
!	!	!	!	!LO:DY:b:t=pp sempre	!
4BB-/	2BB-\	8ddL 8f/)	4ryy	pp	.
.	.	8een/	.	.	.
4B- 4A-X/	.	8ff/	[4ff\	.	.
.	.	8f/J	.	.	.
!LO:N:vis=2	!	!	!	!	!
4BB-/	2BB-\	12ff/L]	2b-\	.	.
.	.	(12bb-/	.	.	.
.	.	12dd/J	.	.	.
4B- 4G/	.	12ff/L	.	.	.
.	.	12dd/	.	.	.
.	.	12ee-X/J)	.	.	.
=51	=51	=51	=51	=51	=51
!LO:N:vis=2	!	!	!	!	!
4BB-/	[2BB-\	8r	2ryy	.	.
.	.	(8Bn/L	.	<	.
(4B- 4G-X/	.	8c/)	.	.	.
.	.	(8d/J	.	.	.
2An 2F/)	2BB-\]	12r	2e-^\)	.	.
!	!	!LO:TX:i:a:t=piu legg.	!	!	!
.	.	(<12an/L	.	[	.
.	.	12b-/J	.	.	.
.	.	12dd/L	.	.	.
.	.	12bn/	.	.	.
.	.	12cc/J)	.	.	.
=52	=52	=52	=52	=52	=52
!LO:N:vis=2	!	!	!	!	!
4BB-/	[2BB-\	8r	2ryy	.	.
.	.	(>(8A/L	.	<	.
(4A-X 4F-X/	.	8B-/)	.	.	.
.	.	(8c/J	.	.	.
2G 2E-/)	2BB-\]	12r	2d-X^\)	.	.
.	.	(<12g/L	.	[	.
.	.	12a-X/J	.	.	.
.	.	12cc/L	.	.	.
.	.	12an/	.	.	.
.	.	12b-/J))	.	.	.
!LO:LB:g=original	!LO:LB:g=original	!LO:LB:g=original	!LO:LB:g=original	!	!
=53	=53	=53	=53	=53	=53
!LO:N:vis=2	!	!	!	!	!
4BB-/	[2BB-\	8r	4ryy	.	.
.	.	(>8B-/	.	.	.
[4G-X [4E-/	.	12c-X/L	[4c-\	.	.
.	.	12dn/	.	.	.
.	.	12f/J	.	.	.
2G-] 2E-/]	2BB-\_	12e-/L	4c-\]	.	.
.	.	12a-X/	.	.	.
.	.	12f/J	.	.	.
.	.	12g-X/L	4e-\	.	.
.	.	12dd-X/	.	.	.
.	.	12cc-X/J)	.	.	.
*	*	*v	*v	*	*
=54	=54	=54	=54	=54
*	*^	*	*	*
12B-L 12F 12BB-/]	12ryy	6ryy	[4b- [>4f [4d/	.	.
*ped	*	*	*	*	*
!LO:TX:i:a:t=linke	!	!	!	!	!
12BBB-/	[6BBB-\	.	.	.	.
12FF/J	.	[12FF\	.	.	.
!	!	!	!LO:TX:i:a:t=rechte	!	!
4BB- 4FF/]	4BBB-\]	12ryy	12b-/]L 12f/] 12d/]	.	.
.	.	[<6D\	12D</	.	.
!	!	!	!LO:TX:t=P:problem=ligatura między dźwiękami 12F</J i 12F	!	!
.	.	.	12F</J	.	.
!LO:TX:t=P:problem=mixed beam	!	!	!	!	!
12B-L 12F 12D/]	4ryy	2r	12ryy	.	.
!	!	!	!LO:TX:i:a:t=linke	!	!
!	!	!	!LO:TX:t=P:problem=ligatura między dźwiękami 12f>\ i 4f>\_	!	!
12f>\	.	.	6f/	.	.
[12b->\J	.	.	.	.	.
4b->_ 4f>\_	12dd>/L	.	12ryy	.	.
!	!	!	!LO:TX:i:a:t=rechte	!	!
.	12ff>/	.	[<6ff>\	.	.
!	!LO:TX:t=P:problem=ligatura między dźwiękami 12bb->/J i 4bb-	!	!	!	!
.	12bb->/J	.	.	.	.
*v	*v	*v	*	*	*
=55	=55	=55	=55
4dd> 4b->] 4f>\]	4ddd 4bb- 4ff/]	.	.
4ryy	4r	.	.
2BB- 2FF 2BBB-;<\	2d< 2B-< 2F<;/	.	.
*Xped	*	*	*
==	==	==	==
*-	*-	*-	*-
!!!system-decoration: {(s1,s2)}
!!!ENC: Filip Voros
!!!END: 2022-03-04
!!!AIN: 1 piano
!!!ENC: Kamil Watkowski
!!!END: 2022-03-07
!!!RDF**kern: > = above
!!!RDF**kern: < = below
